X:1
T: Push about the Jorum
C:
R:Strathspey
Q: 128
K:G
M:4/4
L:1/16
g2|d3G B3G FA3 A3c|B3G B3d efg2 f3e|d3G B3G FA3 A3B|E3G F3A G4 G3g|
d3G B3G FA3 A3c|B3G B3d efg2 f3e|d3G B3G FA3 A3B|E3G F3A G4 G2d2|
|:g4 f3g a3f e3d|gg3 f3g a4 a3d|d3g f3g a3f e3d|efg2 fga2 g4 g3d|
gg3 f3g a3f e3d|gg3 f3g a4 a3d|d3g f3g a3f e3d|eg3 fa3 gb3 eg3:|
d3G B3G FA3 A3c|B3G B3d efg2 f3e|d3G B3G FA3 A3B|E3G F3A G4 G3g|
d3G B3G FA3 A3c|B3G B3d efg2 f3e|d3G B3G FA3 A3B|E3G F3A G4 G2||
